dist/imgs/invision-logo.svg

<svg width="21" height="20" viewBox="0 0 21 20" fill="none" xmlns="http://www.w3.org/2000/svg">
<g clip-path="url(#clip0_10_1048)">
<path d="M18.6867 -0.000793457H2.3128C1.31147 -0.000793457 0.499756 0.810925 0.499756 1.81225V18.1862C0.499756 19.1875 1.31147 19.9992 2.3128 19.9992H18.6867C19.688 19.9992 20.4998 19.1875 20.4998 18.1862V1.81225C20.4998 0.810925 19.688 -0.000793457 18.6867 -0.000793457Z" fill="#DC395F"/>
<path d="M7.18367 6.29259C7.84851 6.29259 8.40546 5.7715 8.40546 5.08853C8.40546 4.40603 7.84851 3.88501 7.18367 3.88501C6.51882 3.88501 5.96203 4.40603 5.96203 5.08853C5.96203 5.77142 6.51882 6.29259 7.18367 6.29259ZM4.65039 12.7395C4.57859 13.0449 4.54257 13.3748 4.54257 13.6439C4.54257 14.7041 5.1175 15.4079 6.33929 15.4079C7.35257 15.4079 8.17406 14.8062 8.76554 13.8346L8.40437 15.284H10.4165L11.5665 10.6716C11.854 9.50377 12.4109 8.8976 13.2555 8.8976C13.9202 8.8976 14.3334 9.31103 14.3334 9.99354C14.3334 10.1913 14.3155 10.4067 14.2436 10.6403L13.6506 12.7604C13.5608 13.0659 13.525 13.3715 13.525 13.6588C13.525 14.6653 14.1177 15.4014 15.3575 15.4014C16.4176 15.4014 17.2619 14.719 17.7291 13.0839L16.9387 12.7788C16.5434 13.8742 16.2019 14.0722 15.9324 14.0722C15.6629 14.0722 15.5191 13.8927 15.5191 13.5335C15.5191 13.3718 15.5552 13.1924 15.609 12.9763L16.1841 10.9108C16.3277 10.4258 16.3817 9.99572 16.3817 9.60057C16.3817 8.05541 15.4473 7.249 14.3155 7.249C13.2555 7.249 12.1773 8.20517 11.6384 9.2115L12.0336 7.40525H8.9614L8.53015 8.99619H9.96757L9.08242 12.5399C8.38734 14.0851 7.11054 14.1102 6.95031 14.0743C6.68718 14.0149 6.5189 13.915 6.5189 13.5731C6.5189 13.3759 6.55484 13.0925 6.64468 12.7509L7.99234 7.40525H4.57859L4.14734 8.99619H5.56664L4.65046 12.7395" fill="white"/>
</g>
<defs>
<clipPath id="clip0_10_1048">
<rect width="20" height="20" fill="white" transform="translate(0.499756 -0.000793457)"/>
</clipPath>
</defs>
</svg>

<svg width="21" height="20" fill="none" xmlns="http://www.w3.org/2000/svg"><g clip-path="url(#clip0_10_1048)"><path d="M18.687 0H2.313A1.813 1.813 0 00.5 1.811v16.374C.5 19.188 1.31 20 2.313 20h16.374a1.813 1.813 0 001.813-1.813V1.812A1.813 1.813 0 0018.687 0z" fill="#DC395F"/><path d="M7.184 6.293c.665 0 1.221-.522 1.221-1.204 0-.683-.556-1.204-1.221-1.204s-1.222.521-1.222 1.204c0 .682.557 1.204 1.222 1.204zM4.65 12.739a4.134 4.134 0 00-.107.905c0 1.06.574 1.764 1.796 1.764 1.014 0 1.835-.602 2.427-1.573l-.362 1.449h2.012l1.15-4.612c.288-1.168.845-1.774 1.69-1.774.664 0 1.077.413 1.077 1.096 0 .197-.018.413-.09.646l-.592 2.12c-.09.306-.126.611-.126.899 0 1.006.593 1.742 1.832 1.742 1.06 0 1.905-.682 2.372-2.317l-.79-.305c-.396 1.095-.737 1.293-1.007 1.293-.27 0-.413-.18-.413-.538 0-.162.036-.342.09-.558l.575-2.065c.144-.485.198-.915.198-1.31 0-1.546-.935-2.352-2.067-2.352-1.06 0-2.138.956-2.677 1.962l.396-1.806H8.96l-.43 1.591h1.437l-.886 3.544c-.695 1.545-1.971 1.57-2.132 1.534-.263-.06-.431-.159-.431-.5 0-.198.036-.482.126-.823l1.347-5.346H4.58l-.432 1.591h1.42L4.65 12.74" fill="#fff"/></g><defs><clipPath id="clip0_10_1048"><path fill="#fff" transform="translate(.5)" d="M0 0h20v20H0z"/></clipPath></defs></svg>
